X:82
T:Polonesse från Gästrikland
S:Efter Pelle Nilsson
O:Gästrikland
Z:Transcribed to abcby Jon Magnusson 090105
R:Polska
M:3/4 
L:1/16  
K:Em
e4 E2G2 B2g2|f4 ^D2F2 B2a2|g3f e2f2 g2ag|f2^d2 B4 B2AB|
e4 E2G2 B2g2|f4 ^D2F2 B2a2|g3f e2f2 gfga|b4 b8:|
K:G
|:b4 BcBA G2b2|d'4 ABAG F2^g2|a4 FGFE D2^a2|b4 GAGF E4|
egfg dgfg Bgfg|egfg dgfg Bgfg|G2Bd g2cB A2gf|g4 g8:|

